assets/images/ico_email.svg

<svg width="16" height="12" viewBox="0 0 16 12" fill="none" xmlns="http://www.w3.org/2000/svg">
<path d="M14.3793 0H0.931035C0.413793 0 0 0.413793 0 0.931035V1.63448L7.51035 6.91035C7.53104 6.91035 7.53104 6.93104 7.55173 6.93104C7.6138 6.97242 7.69655 6.97242 7.75862 6.93104C7.77931 6.93104 7.77931 6.91035 7.8 6.91035L15.3104 1.63448V0.931035C15.3104 0.413793 14.8966 0 14.3793 0Z" fill="white"/>
<path d="M7.65518 8.60691C7.26207 8.60691 6.86897 8.48277 6.55862 8.23449L0 3.64139V11.069C0 11.5862 0.413793 12 0.931035 12H14.3793C14.8966 12 15.3104 11.5862 15.3104 11.069V3.64139L8.75173 8.23449C8.44138 8.48277 8.04828 8.60691 7.65518 8.60691Z" fill="white"/>
</svg>

<svg width="16" height="12" fill="none" xmlns="http://www.w3.org/2000/svg"><path d="M14.38 0H.93A.927.927 0 000 .931v.703L7.51 6.91c.021 0 .021.021.042.021a.188.188 0 00.207 0c.02 0 .02-.02.041-.02l7.51-5.277V.931A.927.927 0 0014.38 0z" fill="#fff"/><path d="M7.655 8.607c-.393 0-.786-.124-1.096-.373L0 3.641v7.428c0 .517.414.931.931.931h13.448a.927.927 0 00.931-.931V3.641L8.752 8.234c-.31.249-.704.373-1.097.373z" fill="#fff"/></svg>
